X:861
T:Octopus Reel from Treasure Planet
R:reel
H:Played by an octopus at the end of the film
Z:id:hn-reel-861
M:C|
L:1/8
K:D
AF~F2 G2FE | DFAd fgfe | dBGB gBdB | AFDF E2dB |
AF~F2 G2FE | DFAd fgfe | dB~B2 AFDF | E2CE D2fg ||
|: ~a3f ~g3e | fdBe cABc | dD~D2 FDFA |1 BdBd cefg |
~a3f ~g3e | fdBe cABc | dD~D2 FDFA | BecA d2fg :|
[2 Bdgf edcB | AF~F2 G2FE | DFAd fgfe | dB~B2 AFDF | E2A,CE D2dB ||

